packages/core/src/svgs/hawk.svg

<svg width="24" height="24" viewBox="0 0 24 24" fill="none" xmlns="http://www.w3.org/2000/svg">
<g clip-path="url(#clip0_31_11241)">
<path d="M0 0H24V24H0V0Z" fill="#F0F3FA"/>
<path d="M7.13148 17.4171C5.99036 16.3939 5.20143 15.0365 4.8772 13.5385C5.60148 12.4243 7.36291 10.1014 10.7272 9.28711L10.5986 9.37282C9.8272 9.84425 8.52434 10.6585 7.65434 12.1843C6.76291 13.7443 6.64291 15.6985 7.13148 17.4171Z" fill="url(#paint0_linear_31_11241)"/>
<path fill-rule="evenodd" clip-rule="evenodd" d="M12.0001 19.2858C13.9324 19.2858 15.7855 18.5182 17.1518 17.1518C18.5182 15.7855 19.2858 13.9324 19.2858 12.0001C19.2858 10.0678 18.5182 8.21463 17.1518 6.84829C15.7855 5.48196 13.9324 4.71436 12.0001 4.71436C10.0678 4.71436 8.21463 5.48196 6.84829 6.84829C5.48196 8.21463 4.71436 10.0678 4.71436 12.0001C4.71436 13.9324 5.48196 15.7855 6.84829 17.1518C8.21463 18.5182 10.0678 19.2858 12.0001 19.2858ZM12.0001 19.2858C13.1701 19.2858 14.2715 19.0115 15.2572 18.5186C13.1744 17.2244 11.0401 14.8758 12.8701 12.1244C13.6437 11.6414 14.5261 11.3602 15.4365 11.3063C16.3469 11.2524 17.2563 11.4275 18.0815 11.8158C17.7815 10.6672 16.5044 9.27007 14.4472 8.71721C13.7486 8.52864 13.2944 8.28864 13.1615 8.19007L13.1486 8.1815C12.6301 7.8215 12.4115 7.6715 12.2529 7.64578C11.2458 7.53007 10.0672 7.84293 9.19293 8.17721C7.22042 8.94472 5.61951 10.4428 4.72293 12.3601C4.81533 14.2278 5.62236 15.9885 6.97697 17.2777C8.33159 18.5669 10.13 19.2859 12.0001 19.2858Z" fill="url(#paint1_linear_31_11241)"/>
<path d="M13.1228 9.01726C12.2754 8.82899 11.3892 8.93637 10.6113 9.32155C10.7634 9.29808 10.9164 9.28092 11.0699 9.27012C11.1642 9.27012 11.927 9.56154 12.3513 9.52726C12.6685 9.49726 12.8742 9.21869 12.9513 9.06012C12.9555 9.05199 12.9615 9.045 12.969 9.03977C12.9765 9.03454 12.9851 9.03123 12.9942 9.03012L13.1228 9.01726Z" fill="#0D3137"/>
<path d="M11.46 19.2645C10.08 17.3659 9.96003 13.9202 12.8657 12.1245C11.04 14.8759 13.1786 17.2245 15.2529 18.5188C14.0793 19.1058 12.7685 19.3635 11.46 19.2645Z" fill="url(#paint2_linear_31_11241)"/>
<path d="M14.5201 8.73438C14.1558 8.80723 13.5344 9.04295 13.3887 9.62152C13.1358 10.5944 12.9601 11.6401 12.8787 12.1158C13.652 11.6357 14.5332 11.3568 15.442 11.3044C16.3507 11.252 17.2581 11.4278 18.0815 11.8158C17.7901 10.6801 16.5344 9.30438 14.5201 8.73438Z" fill="url(#paint3_linear_31_11241)"/>
</g>
<defs>
<linearGradient id="paint0_linear_31_11241" x1="10.5086" y1="9.29568" x2="6.37291" y2="16.7743" gradientUnits="userSpaceOnUse">
<stop stop-color="#2EE4A9"/>
<stop offset="1" stop-color="#0BBDC7"/>
</linearGradient>
<linearGradient id="paint1_linear_31_11241" x1="6.3815" y1="7.71436" x2="19.5258" y2="13.5258" gradientUnits="userSpaceOnUse">
<stop stop-color="#26E09F"/>
<stop offset="1" stop-color="#02A566"/>
</linearGradient>
<linearGradient id="paint2_linear_31_11241" x1="12.3172" y1="12.4931" x2="12.8872" y2="19.2859" gradientUnits="userSpaceOnUse">
<stop stop-color="#11AEB9"/>
<stop offset="0.52" stop-color="#91DFE9"/>
<stop offset="1" stop-color="white" stop-opacity="0"/>
</linearGradient>
<linearGradient id="paint3_linear_31_11241" x1="13.4144" y1="10.1829" x2="17.6872" y2="10.9115" gradientUnits="userSpaceOnUse">
<stop offset="0.09" stop-color="#42C696"/>
<stop offset="1" stop-color="white" stop-opacity="0"/>
</linearGradient>
<clipPath id="clip0_31_11241">
<rect width="24" height="24" fill="white"/>
</clipPath>
</defs>
</svg>

<svg xmlns="http://www.w3.org/2000/svg" width="24" height="24" fill="none" viewBox="0 0 24 24"><g clip-path="url(#a)"><path fill="#F0F3FA" d="M0 0h24v24H0z"/><path fill="url(#b)" d="M7.131 17.417a7.28 7.28 0 0 1-2.254-3.879c.724-1.114 2.486-3.437 5.85-4.25l-.128.085c-.772.471-2.075 1.286-2.945 2.811-.891 1.56-1.011 3.515-.523 5.233"/><path fill="url(#c)" fill-rule="evenodd" d="M12 19.286a7.285 7.285 0 1 0 0-14.57 7.285 7.285 0 0 0 0 14.57m0 0c1.17 0 2.271-.274 3.257-.767-2.083-1.295-4.217-3.643-2.387-6.395a5.46 5.46 0 0 1 5.211-.308c-.3-1.149-1.577-2.546-3.634-3.099-.698-.188-1.153-.428-1.285-.527l-.013-.008c-.519-.36-.737-.51-.896-.536-1.007-.116-2.186.197-3.06.531a8.23 8.23 0 0 0-4.47 4.183A7.286 7.286 0 0 0 12 19.286" clip-rule="evenodd"/><path fill="#0D3137" d="M13.123 9.017a3.8 3.8 0 0 0-2.512.305q.228-.036.459-.052c.094 0 .857.292 1.281.257.317-.03.523-.308.6-.467a.06.06 0 0 1 .043-.03z"/><path fill="url(#d)" d="M11.46 19.265c-1.38-1.9-1.5-5.345 1.406-7.14-1.826 2.75.313 5.1 2.387 6.394a7.26 7.26 0 0 1-3.793.746"/><path fill="url(#e)" d="M14.52 8.734c-.364.073-.986.309-1.131.888-.253.972-.429 2.018-.51 2.494a5.46 5.46 0 0 1 5.202-.3c-.29-1.136-1.547-2.512-3.56-3.082"/></g><defs><linearGradient id="b" x1="10.509" x2="6.373" y1="9.296" y2="16.774" gradientUnits="userSpaceOnUse"><stop stop-color="#2EE4A9"/><stop offset="1" stop-color="#0BBDC7"/></linearGradient><linearGradient id="c" x1="6.381" x2="19.526" y1="7.714" y2="13.526" gradientUnits="userSpaceOnUse"><stop stop-color="#26E09F"/><stop offset="1" stop-color="#02A566"/></linearGradient><linearGradient id="d" x1="12.317" x2="12.887" y1="12.493" y2="19.286" gradientUnits="userSpaceOnUse"><stop stop-color="#11AEB9"/><stop offset=".52" stop-color="#91DFE9"/><stop offset="1" stop-color="#fff" stop-opacity="0"/></linearGradient><linearGradient id="e" x1="13.414" x2="17.687" y1="10.183" y2="10.912" gradientUnits="userSpaceOnUse"><stop offset=".09" stop-color="#42C696"/><stop offset="1" stop-color="#fff" stop-opacity="0"/></linearGradient><clipPath id="a"><path fill="#fff" d="M0 0h24v24H0z"/></clipPath></defs></svg>
